X: 7803
T:Sextur 3
R:Sextur
O:Denmark
M:6/8
K:G
D | G2G GAB | cBc E2A | F2A DEF | G2B dcA :: \
    d2d B2d | e2e c2B | A2A B2c | d2d B2A |\
    G2G GAB | cBc E2G | F2A DEF | G3 G3 :|
